X:409
T: "Der boese Bruder"
N: Z1089
O: Europa, Mitteleuropa, Deutschland, Franken
R: Romanze, Ballade, Tod
M: 2/4
L: 1/16
K: Ab
E2 | A4B4 | c2e2d2c2 | B4z2
c2 | d2c2B2A2 | G2B2E2
E2 | A4B4 | c3de2d2 | c4B4 | A4z2
c2 | B2c2d2e2 | d4c4 | B4z2
B2 | c2d2e2f2 | e4d4 | c4z2
E2 | A4B4 | c2e2d2c2 | B4z2
c2 | d2c2B2A2 | G2B2E2
E2 | A4B4 | c3de2d2 | c4B4 | A4z2

